assets/images/icon-quote.svg

<svg width="34" height="23" viewBox="0 0 34 23" fill="none" xmlns="http://www.w3.org/2000/svg">
<path fill-rule="evenodd" clip-rule="evenodd" d="M9.63091 0.144315L11.1066 1.03792C11.3675 1.19594 11.4272 1.54856 11.2349 1.78536C9.08005 4.43892 7.12216 7.31629 7.12195 10.8825C10.0635 10.8825 13.0949 13.3058 13.0949 16.4084C13.0949 20.7423 9.61052 23.4414 6.12633 22.939C2.64214 22.4367 0.58078 19.9249 0.153573 16.9107C-0.826125 9.99852 2.98637 3.77393 8.59945 0.151692C8.91222 -0.0501455 9.3125 -0.0485027 9.63091 0.144315ZM30.5361 0.144315L32.0117 1.03792C32.2727 1.19594 32.3323 1.54856 32.14 1.78536C29.9852 4.43892 28.0273 7.31629 28.0271 10.8825C30.9687 10.8825 34 13.3058 34 16.4084C34 20.7423 30.5157 23.4414 27.0315 22.939C23.5473 22.4367 21.4859 19.9249 21.0587 16.9107C20.079 9.99852 23.8915 3.77393 29.5046 0.151692C29.8174 -0.0501455 30.2177 -0.0485027 30.5361 0.144315Z" fill="url(#paint0_linear)"/>
<defs>
<linearGradient id="paint0_linear" x1="1.92667" y1="4.65138e-07" x2="19.7024" y2="29.0178" gradientUnits="userSpaceOnUse">
<stop offset="0.259336" stop-color="#8ebb81"/>
<stop offset="1" stop-color="#8ebb81"/>
</linearGradient>
</defs>
</svg>

<?xml version="1.0"?>
<svg width="34" height="23" xmlns="http://www.w3.org/2000/svg" viewBox="0 0 34 23">
 <defs>
  <radialGradient id="svg_4" r="1" spreadMethod="pad">
   <stop offset="0.26" stop-color="#d67e79" stop-opacity="0.99"/>
   <stop offset="1" stop-color="#a00b10" stop-opacity="1"/>
  </radialGradient>
 </defs>
 <g class="layer">
  <title>Layer 1</title>
  <path clip-rule="evenodd" d="m9.63,0.14l1.48,0.9c0.26,0.16 0.32,0.51 0.12,0.75c-2.15,2.65 -4.11,5.53 -4.11,9.09c2.94,0 5.97,2.43 5.97,5.53c0,4.33 -3.48,7.03 -6.96,6.53c-3.49,-0.5 -5.55,-3.02 -5.98,-6.03c-0.98,-6.91 2.84,-13.14 8.45,-16.76c0.31,-0.2 0.71,-0.2 1.03,-0.01zm20.91,0l1.47,0.9c0.26,0.16 0.32,0.51 0.13,0.75c-2.15,2.65 -4.11,5.53 -4.11,9.09c2.94,0 5.97,2.43 5.97,5.53c0,4.33 -3.48,7.03 -6.97,6.53c-3.48,-0.5 -5.54,-3.02 -5.97,-6.03c-0.98,-6.91 2.83,-13.14 8.44,-16.76c0.32,-0.2 0.72,-0.2 1.04,-0.01z" fill="url(#svg_4)" fill-rule="evenodd" id="svg_1"/>
 </g>
</svg>
